!!!OTL: Die Schneider.
!!!OTL-incipit: ES SIND EINMAL DREI SCHNEIDER GEWESEN
!!!ARE: Europa, Mitteleuropa, Deutschland, Mittelrhein
!!!SCT: Z1329
!!!TXL: @@DE
!!!YEM: Copyright 1995, estate of Helmut Schaffrath.
**kern	**text
*ICvox	*
*M6/8	*
*k[]	*
*C:	*
!LO:TX:a:t=Vorſänger.	!
!LO:TX:a:t=Vom Mittelrhein.	!
{8g	Es
=1	=1
4g	ſind
8g	ein-
8gL	-mal
8aJ	.
8b/	drei
=2	=2
8.cc	Schneider
16cc	.
8cc	ge-
8cc	-we-
8b}	-ſen,
!LO:TX:a:t=Alle.	!
{8a	o
=3	=3
4g	je!
8g	o
4f#	je!
8f#	o
=4	=4
[>4.g	je!
4g]}	.
!LO:TX:a:t=Vorſänger.	!
{8g	die
=5	=5
8.dd	wa-
16dd	-ten
8dd	ſo
8.ee	e-
16ee	-ben
8ee	vom
=6	=6
8.ff	Fie-
16ff	-ber
8ff	ge-
8ee	-ne-
8dd}	-ſen;
!LO:TX:a:t=Vorſänger.	!
{8dd/	o
=7	=7
4cc/	je!
8cc/	o
4dd/	je!
8dd/	o
=8	=8
[>4.ee	je!
4ee]}	.
!LO:TX:a:t=Vorſänger.	!
{8ee	ſie
=9	=9
8ee	konn-
8a	-ten
8a	kaum
8aL	auf
8bJ	.
8cc#	den
=10	=10
4dd	Bei
8dd	nen
4dd}	ſtehn,
{8dd	und
=11	=11
8dd	ha-
8g	-ben
8g	'nen
8g	Schnecken
8a	.
8b	für'n
=12	=12
8.cc	Bä-
16cc	-ren
8cc	angeſehn,
4cc}	.
!LO:TX:a:t=Vorſänger.	!
{8cc/	o
=13	=13
4b/	je!
8b/	o
4a	je!
8a	o
=14	=14
[>4.g#	je!
4g#]}	.
!LO:TX:a:t=Vorſänger.	!
{8e	ſie
=15	=15
8.a	ha-
16g#	-ben
8a	'nen
8.b/	Schnecken
16a	.
8b/	für'n
=16	=16
8.cc	Bären
16b	.
8cc	angeſehn!
4dd}	.
!LO:TX:a:t=Vorſänger.	!
{8dd/	o
=17	=17
4ee/	je!
8ee/	o
4ff/	je!
8b/	o
=18	=18
[>4.cc/	je!
4cc/]}	.
==	==
!!!AGN: Zech -, Schalks - Lied
!!!ONB: ESAC (Essen Associative Code) Database: ZUCCAL
!!!AMT: compound duple
!!!AIN: vox
!!!EED: Helmut Schaffrath
!!!EEV: 1.0
!!!RDF**kern: >= above
!!!GTL: VIII. Zech- und Schalks-Lieder.
!!!URL-scan: https://www.digitale-sammlungen.de/de/view/bsb11160573?page=604
!!!ENC: Anna Maria Matuszewska
!!!EEV: 2025/02/07
*-	*-
